svgs/sharp-solid/hammer-war.svg

<svg xmlns="http://www.w3.org/2000/svg" viewBox="0 0 384 512"><!--! Font Awesome Pro 6.6.0 by @fontawesome - https://fontawesome.com License - https://fontawesome.com/license (Commercial License) Copyright 2024 Fonticons, Inc. --><path d="M224 0l0 32 0 24.9L336 32l48 0 0 256-48 0L192 256 48 288 0 288 0 32l48 0L160 56.9 160 32l0-32 64 0zM192 288.8l32 7.1L224 480l0 32-64 0 0-32 0-184.1 32-7.1z"/></svg>

<svg xmlns="http://www.w3.org/2000/svg" viewBox="0 0 384 512"><!--! Font Awesome Pro 6.4.0 by @fontawesome - https://fontawesome.com License - https://fontawesome.com/license (Commercial License) Copyright 2023 Fonticons, Inc. --><path d="M224 0V32 56.9L336 32h48V288H336L192 256 48 288H0V32H48L160 56.9V32 0h64zM192 288.8l32 7.1V480v32H160V480 295.9l32-7.1z"/></svg>
